!! 00008] TT[TB
!! eigene Aufnahme
!!!OTL: Chahar ba qi
!!!ARE: Neimeng Zhelimumeng
!! Ethnic Group: Menggu
!! IV, 363
!!!SCT: C0189
!!!YEM: Copyright 1995, estate of Helmut Schaffrath.
**kern
*ICvox
*Ivox
*M4/4
*k[b-]
*F:
{8d
8g
8g
8g
8a
8g
8a
8dd
=1
4.cc
8ff
2dd}
=2
{8d
8g
8g
8g
8a
8g
8a
8dd
=3
1cc}
=4
{4a
8.dd
16ff
8a
8g
4f
=5
8d
8d
8f
8d
4c
4c}
=6
{8a
8cc
8f
8d
8c
8d
8a
8g
=7
1f}
==
!!!AGN: Xushi ge. Sixiang
!! Bei den gesungenen Abweichungen vom Notentext in diesem Beispiel
!!    bringt die Akzenttonfolge wohl am meisten.
!!!ONB: ESAC (Essen Associative Code) Database: CHINA
!!!AMT: simple quadruple
!!!AIN: vox
!!!EED: Helmut Schaffrath
!!!EEV: 1.0
*-
